X: 374
T: Nancy's Branching Tresses
M:C
L:1/8
B:O'Neill's 374
N:"Moderate."
N:"collected by J. O'Neill."
N:H is a fermata (first is over first repeat sign)
N:Dal Segno above first and last bar-lines.
Z:Transcribed by Chris Falt, cfalt@trytel.com
K:F
c2|"Sign"f>g(af) d>e(fd)|(c>A)(G>A) F2AB|(cd)e>f dABA|F4 z2Hx:|
c2|cdef g3f|e2d>c c2zc|cdef a3(g/2f/2)|(e>g f/2e/2d/2e/2) Hc3 (d/2"Sign"e/2):|


